X:62217849706994
T:4-7-3-6-8-3-7-12-11-6-10-2-11-10-3-12
%%setfont-1 Courier-Bold 8
T:$1K.516f::69:157:128:45:99:46:118:5:102:143:19:9:144:38:116:131::$0
T:$1Perm. No.: 62217849706994$0
M:3/8
L:1/8
Q:1/8=111
%%staves [1 2]
V:1 clef=treble
V:2 clef=bass
K:C
%1
[V:1]|: (gec) |\
[V:2]|: [C,2E,2]z |\
%2
[V:1] e/d/e/g/c'/g/ |\
[V:2] C,2z |\
%3
[V:1] Bdg |\
[V:2] G,,2z |\
%4
[V:1] c/B/c/G/E/C/ |\
[V:2] [G,2E,2]z |\
%5
[V:1] ^fad |\
[V:2] [A,2C,2][A,C,] |\
%6
[V:1] gb/g/d/B/ |\
[V:2] [D,2B,,2]z |\
%7
[V:1] e/a/g/b/^f/a/ \
[V:2] C,D,D,, \
%8a
[V:1]|1 [g2d2B2G2]z :|2
[V:2]|1 G,,G,/=F,/E,/D,/ :|2
%8b
[V:1] [g2d2B2G2]z |:\
[V:2] G,,B,/G,/^F,/E,/ |:\
%9
[V:1] ^f/d/A f |\
[V:2] [A,2C,2][A,C,] |\
%10
[V:1] gd/B/G |\
[V:2] [D,2B,,2][D,B,,] |\
%11
[V:1] e/c/eg |\
[V:2] [G,2C,2][E,C,] |\
%12
[V:1] [ec][dB]z |\
[V:2] G,2G,, |\
%13
[V:1] gce |\
[V:2] [E,/C,/]G,/[E,/C,/]G,/[E,/C,/]G,/ |\
%14
[V:1] cGe |\
[V:2] [E,/C,/]G,/[E,/C,/]G,/[E,/C,/]G,/ |\
%15
[V:1] d/f/a/f/d/B/ |\
[V:2] F,2G, |\
%16
[V:1] c2z :|]
[V:2] C,G,,C,, :|]
